X: 19802
T: Jerome Burke's
R: polka
M: 2/4
K: Dmajor
A|DF AB/c/|dc BA|BE EF|G2 FE|DF AB/c/|dc BA|Be Bc|d2d:|
|:e|f2 fe/f/|gf ed|e2 ed/e/|fd BA|Af fe/f/|gf ed|ce Bc|d2d:|

